img/icons.svg

<?xml version="1.0"?>
<!--Icons from directory ""-->
<svg xmlns="http://www.w3.org/2000/svg" width="65" height="648" viewBox="0 0 65 648"><svg width="22" viewBox="-5 -5 22 22" height="22" id="cart" y="0"><path d="m11.864 3.017a0.429 0.429 0 0 0 -0.327 -0.154h-2.312v1.227c0 0.563-0.484 1.022-1.08 1.022-0.594 0-1.078-0.458-1.078-1.022v-1.227h-2.158v1.227c0 0.563-0.485 1.022-1.08 1.022s-1.078-0.458-1.078-1.022v-1.227h-2.313a0.43 0.43 0 0 0 -0.327 0.154 0.472 0.472 0 0 0 -0.108 0.358l0.776 7.134c0.015 0.806 0.642 1.455 1.411 1.455h7.595c0.77 0 1.396-0.649 1.411-1.455l0.776-7.134a0.476 0.476 0 0 0 -0.108 -0.358z"/><path d="m3.829 4.499c0.239 0 0.433-0.184 0.433-0.409v-2.25c0-0.632 0.672-1.022 1.295-1.022h1.079c0.655 0 1.078 0.401 1.078 1.022v2.25c0 0.225 0.194 0.409 0.431 0.409 0.239 0 0.433-0.184 0.433-0.409v-2.25c-0.001-1.067-0.817-1.84-1.942-1.84h-1.079c-1.19 0-2.159 0.826-2.159 1.84v2.25c0 0.225 0.194 0.409 0.431 0.409z"/></svg><svg width="33" viewBox="-5 -5 33 33" height="33" id="checkbox-off" y="22"><path d="m20 2c0.542 0 1 0.458 1 1v17c0 0.542-0.458 1-1 1h-17c-0.542 0-1-0.458-1-1v-17c0-0.542 0.458-1 1-1h17m0-2h-17c-1.65 0-3 1.35-3 3v17c0 1.65 1.35 3 3 3h17c1.65 0 3-1.35 3-3v-17c0-1.65-1.35-3-3-3z"/></svg><svg width="37" viewBox="-5 -5 37 33" height="33" id="checkbox-on" y="55"><path d="m7.285 7.486l-2.829 2.829 7.783 7.783 13.932-13.932-2.828-2.829-11.104 11.102z"/><path d="m21 20c0 0.542-0.458 1-1 1h-17c-0.542 0-1-0.458-1-1v-17c0-0.542 0.458-1 1-1h16.908l1.585-1.585a2.96 2.96 0 0 0 -1.493 -0.415h-17c-1.65 0-3 1.35-3 3v17c0 1.65 1.35 3 3 3h17c1.65 0 3-1.35 3-3v-9.829l-2 2v7.829z"/></svg><svg width="20" viewBox="-5 -5 20 20" height="20" id="compare" y="88"><path d="m8 2h1.984v8h-1.984zm-8 1h1.984v7h-1.984zm4-3h2v10h-2z"/></svg><svg width="42" viewBox="-5 -5 42 42" height="42" id="fb" y="108"><path d="m16 0c-8.836 0-16 7.163-16 16s7.164 16 16 16c8.837 0 16-7.164 16-16s-7.163-16-16-16zm4.062 9.455h-3.021v3.444h3.021v3.445h-3.021v8.61h-3.021v-8.61h-3.02v-3.445h3.021v-3.444c0-1.902 1.353-3.445 3.021-3.445h3.021v3.445z" fill="#FFF"/></svg><svg width="30" viewBox="-5 -5 30 33" height="33" id="filter-button" y="150"><path opacity=".3" d="m10 20c-5.523 0-10-4.478-10-10v2c0 5.522 4.477 10 10 10 5.522 0 10-4.478 10-10v-2c0 5.522-4.478 10-10 10z" fill="#ABABAB"/><circle cy="10" cx="10" r="10" fill="#FFF"/><circle cy="10" cx="10" r="2" fill="#ABABAB"/></svg><svg width="21" viewBox="-5 -5 21 20" height="20" id="icon-down-dir" y="183"><path d="m5.5 10l-5.5-10h11" fill="#231F20"/></svg><svg width="21" viewBox="-5 -5 21 20" height="20" id="icon-up-dir" y="203"><path d="m5.5 0l-5.5 10h11z" fill="#231F20"/></svg><svg width="42" viewBox="-5 -5 42 42" height="42" id="instagram" y="223"><g fill="#FFF"><path d="m20.916 16a4.938 4.938 0 1 1 -9.877 0c0-0.394 0.051-0.773 0.138-1.14h-0.897v6.838h11.396v-6.838h-0.897c0.086 0.367 0.137 0.746 0.137 1.14z"/><path d="m15.978 18.659c1.466 0 2.659-1.193 2.659-2.659s-1.193-2.659-2.659-2.659c-1.466 0-2.659 1.193-2.659 2.659s1.192 2.659 2.659 2.659zm2.659-8.357h3.039v3.039h-3.039z"/><path d="m16 0c-8.836 0-16 7.164-16 16 0 8.837 7.164 16 16 16 8.837 0 16-7.163 16-16 0-8.836-7.163-16-16-16zm7.955 21.698a2.285 2.285 0 0 1 -2.279 2.279h-11.397a2.285 2.285 0 0 1 -2.279 -2.279v-11.396a2.286 2.286 0 0 1 2.279 -2.279h11.396a2.286 2.286 0 0 1 2.279 2.279v11.396z"/></g></svg><svg width="33" viewBox="-5 -5 33 32" height="32" id="menu-close" y="265"><path d="m22.979 20.569l-9.99-9.574 9.989-9.573-1.487-1.425-9.988 9.573-9.987-9.573-1.487 1.425 9.987 9.573-9.988 9.574 1.488 1.425 9.987-9.574 9.989 9.574z"/></svg><svg width="65" viewBox="-5 -5 65 65" height="65" id="modal-close" y="297"><path d="m27.5 0c-15.188 0-27.5 12.312-27.5 27.5s12.312 27.5 27.5 27.5 27.5-12.312 27.5-27.5-12.312-27.5-27.5-27.5zm11.476 37.072l-1.486 1.426-9.99-9.574-9.987 9.574-1.488-1.426 9.988-9.573-9.987-9.573 1.487-1.425 9.987 9.573 9.988-9.573 1.487 1.425-9.989 9.574 9.99 9.572z" fill="#F0C52E"/></svg><svg width="14" viewBox="-5 -5 14 17" height="17" id="nav-arrow" y="362"><path d="m3.83 3.132l-2.969-2.988a0.5 0.5 0 0 0 -0.713 0 0.508 0.508 0 0 0 0 0.718l2.611 2.629-2.611 2.629a0.51 0.51 0 0 0 0 0.72 0.5 0.5 0 0 0 0.713 0l2.969-2.988a0.51 0.51 0 0 0 0.147 -0.36 0.507 0.507 0 0 0 -0.147 -0.36z"/></svg><svg width="26" viewBox="-5 -5 26 26" height="26" id="plus" y="379"><path d="m16 7h-7v-7h-2v7h-7v2h7v7h2v-7h7z" fill="#272525"/></svg><svg width="35" viewBox="-5 -5 35 35" height="35" id="radio-off" y="405"><path d="m12.5 4c4.687 0 8.5 3.813 8.5 8.5s-3.813 8.5-8.5 8.5-8.5-3.813-8.5-8.5 3.813-8.5 8.5-8.5m0-4c-6.903 0-12.5 5.597-12.5 12.5s5.597 12.5 12.5 12.5 12.5-5.597 12.5-12.5-5.597-12.5-12.5-12.5z"/></svg><svg width="35" viewBox="-5 -5 35 35" height="35" id="radio-on" y="440"><path d="m12.5 4c4.687 0 8.5 3.813 8.5 8.5s-3.813 8.5-8.5 8.5-8.5-3.813-8.5-8.5 3.813-8.5 8.5-8.5m0-4c-6.903 0-12.5 5.597-12.5 12.5s5.597 12.5 12.5 12.5 12.5-5.597 12.5-12.5-5.597-12.5-12.5-12.5z"/><circle cy="12.5" cx="12.5" r="4.5"/></svg><svg width="26" viewBox="-5 -5 26 26" height="26" id="search" y="475"><path d="m15.7 14.3l-3.104-3.104a6.979 6.979 0 0 0 1.404 -4.196 7 7 0 1 0 -7 7 6.963 6.963 0 0 0 4.193 -1.404l3.107 3.104c0.185 0.184 0.38 0.3 0.7 0.3a1 1 0 0 0 1 -1 0.93 0.93 0 0 0 -0.3 -0.7zm-13.7-7.3c0-2.762 2.238-5 5-5s5 2.238 5 5-2.238 5-5 5-5-2.238-5-5z"/></svg><svg width="33" viewBox="-5 -5 33 33" height="33" id="slider-button-empty" y="501"><path d="m11.5 2c5.238 0 9.5 4.262 9.5 9.5s-4.262 9.5-9.5 9.5-9.5-4.262-9.5-9.5 4.262-9.5 9.5-9.5m0-2c-6.351 0-11.5 5.149-11.5 11.5 0 6.352 5.149 11.5 11.5 11.5 6.352 0 11.5-5.148 11.5-11.5 0-6.351-5.148-11.5-11.5-11.5z"/></svg><svg width="33" viewBox="-5 -5 33 33" height="33" id="slider-button" y="534"><path d="m11.5 2c5.238 0 9.5 4.262 9.5 9.5s-4.262 9.5-9.5 9.5-9.5-4.262-9.5-9.5 4.262-9.5 9.5-9.5m0-2c-6.351 0-11.5 5.149-11.5 11.5 0 6.352 5.149 11.5 11.5 11.5 6.352 0 11.5-5.148 11.5-11.5 0-6.351-5.148-11.5-11.5-11.5z"/><path d="m11.5 9.004a2.5 2.5 0 0 1 2.496 2.496 2.5 2.5 0 0 1 -2.496 2.496 2.5 2.5 0 0 1 -2.496 -2.496 2.5 2.5 0 0 1 2.496 -2.496m0-2a4.496 4.496 0 1 0 0 8.992 4.496 4.496 0 0 0 0 -8.992z"/></svg><svg width="22" viewBox="-5 -5 22 17" height="17" id="tick" y="567"><path d="m11.798 0.267a0.752 0.752 0 0 0 -1.061 -0.122l-6.348 5.083-3.142-2.876a0.752 0.752 0 0 0 -1.066 0.051 0.764 0.764 0 0 0 0.05 1.074l3.618 3.309c0.038 0.035 0.083 0.053 0.125 0.078 0.03 0.019 0.055 0.04 0.086 0.054a0.753 0.753 0 0 0 0.296 0.066 0.713 0.713 0 0 0 0.274 -0.058c0.029-0.01 0.053-0.028 0.08-0.042 0.04-0.022 0.081-0.036 0.117-0.064l6.85-5.485a0.764 0.764 0 0 0 0.121 -1.068z"/></svg><svg width="42" viewBox="-5 -5 42 42" height="42" id="twitter" y="584"><path d="m16 0c-8.836 0-16 7.164-16 16 0 8.837 7.164 16 16 16 8.837 0 16-7.163 16-16 0-8.836-7.163-16-16-16zm7.944 12.809c-0.251 6.516-3.463 10.832-10.992 10.702h-0.486c-0.447 0-4.543-0.443-5.344-1.823 2.479 0.19 4.247-0.406 5.12-1.136-1.048-0.289-2.923-0.461-3.251-2.848 0.384 0.104 0.618 0.221 1.299 0.113-1.307-0.824-2.758-1.519-2.679-3.643 0.311 0.317 1.164 0.518 1.46 0.457-0.768-0.233-2.149-3.244-0.974-4.781 1.984 1.79 4.075 3.482 7.804 3.643 0.227-2.214 1.24-3.699 3.168-4.325 1.84-0.479 3.255 0.26 3.901 1.138 0.737-0.224 1.453-0.466 2.193-0.685-0.004 0.833-0.569 1.463-0.935 1.709 0.747 0.165 1.423-0.475 1.423-0.475-0.184 0.963-1.094 1.725-1.707 1.954z" fill="#FFF"/></svg><svg width="23" viewBox="-5 -5 23 22" height="22" id="user" y="626"><path d="m0.032 12h12.937c-0.163-2.643-2.074-4.837-4.671-5.543a3.47 3.47 0 0 0 1.687 -2.972 3.485 3.485 0 0 0 -6.97 0c0 1.264 0.68 2.361 1.688 2.972-2.597 0.706-4.509 2.9-4.671 5.543z" fill="#272525"/></svg></svg>

<svg xmlns="http://www.w3.org/2000/svg" width="65" height="648" viewBox="0 0 65 648"><svg width="22" viewBox="-5 -5 22 22" height="22"><path d="M11.864 3.017a.429.429 0 0 0-.327-.154H9.225V4.09c0 .563-.484 1.022-1.08 1.022-.594 0-1.078-.458-1.078-1.022V2.863H4.909V4.09c0 .563-.485 1.022-1.08 1.022S2.751 4.654 2.751 4.09V2.863H.438a.43.43 0 0 0-.327.154.472.472 0 0 0-.108.358l.776 7.134c.015.806.642 1.455 1.411 1.455h7.595c.77 0 1.396-.649 1.411-1.455l.776-7.134a.476.476 0 0 0-.108-.358z"/><path d="M3.829 4.499c.239 0 .433-.184.433-.409V1.84c0-.632.672-1.022 1.295-1.022h1.079c.655 0 1.078.401 1.078 1.022v2.25c0 .225.194.409.431.409.239 0 .433-.184.433-.409V1.84C8.577.773 7.761 0 6.636 0H5.557c-1.19 0-2.159.826-2.159 1.84v2.25c0 .225.194.409.431.409z"/></svg><svg width="33" viewBox="-5 -5 33 33" height="33" y="22"><path d="M20 2c.542 0 1 .458 1 1v17c0 .542-.458 1-1 1H3c-.542 0-1-.458-1-1V3c0-.542.458-1 1-1h17m0-2H3C1.35 0 0 1.35 0 3v17c0 1.65 1.35 3 3 3h17c1.65 0 3-1.35 3-3V3c0-1.65-1.35-3-3-3z"/></svg><svg width="37" viewBox="-5 -5 37 33" height="33" y="55"><path d="M7.285 7.486l-2.829 2.829 7.783 7.783L26.171 4.166l-2.828-2.829-11.104 11.102z"/><path d="M21 20c0 .542-.458 1-1 1H3c-.542 0-1-.458-1-1V3c0-.542.458-1 1-1h16.908L21.493.415A2.96 2.96 0 0 0 20 0H3C1.35 0 0 1.35 0 3v17c0 1.65 1.35 3 3 3h17c1.65 0 3-1.35 3-3v-9.829l-2 2V20z"/></svg><svg width="20" viewBox="-5 -5 20 20" height="20" y="88"><path d="M8 2h1.984v8H8zM0 3h1.984v7H0zm4-3h2v10H4z"/></svg><svg width="42" viewBox="-5 -5 42 42" height="42" y="108"><path d="M16 0C7.164 0 0 7.163 0 16s7.164 16 16 16c8.837 0 16-7.164 16-16S24.837 0 16 0zm4.062 9.455h-3.021v3.444h3.021v3.445h-3.021v8.61H14.02v-8.61H11v-3.445h3.021V9.455c0-1.902 1.353-3.445 3.021-3.445h3.021v3.445z" fill="#FFF"/></svg><svg width="30" viewBox="-5 -5 30 33" height="33" y="150"><path opacity=".3" d="M10 20C4.477 20 0 15.522 0 10v2c0 5.522 4.477 10 10 10 5.522 0 10-4.478 10-10v-2c0 5.522-4.478 10-10 10z" fill="#ABABAB"/><circle cy="10" cx="10" r="10" fill="#FFF"/><circle cy="10" cx="10" r="2" fill="#ABABAB"/></svg><svg width="21" viewBox="-5 -5 21 20" height="20" y="183"><path d="M5.5 10L0 0h11" fill="#231F20"/></svg><svg width="21" viewBox="-5 -5 21 20" height="20" y="203"><path d="M5.5 0L0 10h11z" fill="#231F20"/></svg><svg width="42" viewBox="-5 -5 42 42" height="42" y="223"><g fill="#FFF"><path d="M20.916 16a4.938 4.938 0 1 1-9.877 0c0-.394.051-.773.138-1.14h-.897v6.838h11.396V14.86h-.897c.086.367.137.746.137 1.14z"/><path d="M15.978 18.659c1.466 0 2.659-1.193 2.659-2.659s-1.193-2.659-2.659-2.659c-1.466 0-2.659 1.193-2.659 2.659s1.192 2.659 2.659 2.659zm2.659-8.357h3.039v3.039h-3.039z"/><path d="M16 0C7.164 0 0 7.164 0 16c0 8.837 7.164 16 16 16 8.837 0 16-7.163 16-16 0-8.836-7.163-16-16-16zm7.955 21.698a2.285 2.285 0 0 1-2.279 2.279H10.279A2.285 2.285 0 0 1 8 21.698V10.302a2.286 2.286 0 0 1 2.279-2.279h11.396a2.286 2.286 0 0 1 2.279 2.279v11.396z"/></g></svg><svg width="33" viewBox="-5 -5 33 32" height="32" y="265"><path d="M22.979 20.569l-9.99-9.574 9.989-9.573-1.487-1.425-9.988 9.573L1.516-.003.029 1.422l9.987 9.573-9.988 9.574 1.488 1.425 9.987-9.574 9.989 9.574z"/></svg><svg width="65" viewBox="-5 -5 65 65" height="65" y="297"><path d="M27.5 0C12.312 0 0 12.312 0 27.5S12.312 55 27.5 55 55 42.688 55 27.5 42.688 0 27.5 0zm11.476 37.072l-1.486 1.426-9.99-9.574-9.987 9.574-1.488-1.426 9.988-9.573-9.987-9.573 1.487-1.425 9.987 9.573 9.988-9.573 1.487 1.425-9.989 9.574 9.99 9.572z" fill="#F0C52E"/></svg><svg width="14" viewBox="-5 -5 14 17" height="17" y="362"><path d="M3.83 3.132L.861.144a.5.5 0 0 0-.713 0 .508.508 0 0 0 0 .718l2.611 2.629L.148 6.12a.51.51 0 0 0 0 .72.5.5 0 0 0 .713 0L3.83 3.852a.51.51 0 0 0 .147-.36.507.507 0 0 0-.147-.36z"/></svg><svg width="26" viewBox="-5 -5 26 26" height="26" y="379"><path d="M16 7H9V0H7v7H0v2h7v7h2V9h7z" fill="#272525"/></svg><svg width="35" viewBox="-5 -5 35 35" height="35" y="405"><path d="M12.5 4c4.687 0 8.5 3.813 8.5 8.5S17.187 21 12.5 21 4 17.187 4 12.5 7.813 4 12.5 4m0-4C5.597 0 0 5.597 0 12.5S5.597 25 12.5 25 25 19.403 25 12.5 19.403 0 12.5 0z"/></svg><svg width="35" viewBox="-5 -5 35 35" height="35" y="440"><path d="M12.5 4c4.687 0 8.5 3.813 8.5 8.5S17.187 21 12.5 21 4 17.187 4 12.5 7.813 4 12.5 4m0-4C5.597 0 0 5.597 0 12.5S5.597 25 12.5 25 25 19.403 25 12.5 19.403 0 12.5 0z"/><circle cy="12.5" cx="12.5" r="4.5"/></svg><svg width="26" viewBox="-5 -5 26 26" height="26" y="475"><path d="M15.7 14.3l-3.104-3.104A6.979 6.979 0 0 0 14 7a7 7 0 1 0-7 7 6.963 6.963 0 0 0 4.193-1.404L14.3 15.7c.185.184.38.3.7.3a1 1 0 0 0 1-1 .93.93 0 0 0-.3-.7zM2 7c0-2.762 2.238-5 5-5s5 2.238 5 5-2.238 5-5 5-5-2.238-5-5z"/></svg><svg width="33" viewBox="-5 -5 33 33" height="33" y="501"><path d="M11.5 2c5.238 0 9.5 4.262 9.5 9.5S16.738 21 11.5 21 2 16.738 2 11.5 6.262 2 11.5 2m0-2C5.149 0 0 5.149 0 11.5 0 17.852 5.149 23 11.5 23 17.852 23 23 17.852 23 11.5 23 5.149 17.852 0 11.5 0z"/></svg><svg width="33" viewBox="-5 -5 33 33" height="33" y="534"><path d="M11.5 2c5.238 0 9.5 4.262 9.5 9.5S16.738 21 11.5 21 2 16.738 2 11.5 6.262 2 11.5 2m0-2C5.149 0 0 5.149 0 11.5 0 17.852 5.149 23 11.5 23 17.852 23 23 17.852 23 11.5 23 5.149 17.852 0 11.5 0z"/><path d="M11.5 9.004a2.5 2.5 0 0 1 2.496 2.496 2.5 2.5 0 0 1-2.496 2.496A2.5 2.5 0 0 1 9.004 11.5 2.5 2.5 0 0 1 11.5 9.004m0-2a4.496 4.496 0 1 0 0 8.992 4.496 4.496 0 0 0 0-8.992z"/></svg><svg width="22" viewBox="-5 -5 22 17" height="17" y="567"><path d="M11.798.267a.752.752 0 0 0-1.061-.122L4.389 5.228 1.247 2.352a.752.752 0 0 0-1.066.051.764.764 0 0 0 .05 1.074l3.618 3.309c.038.035.083.053.125.078.03.019.055.04.086.054a.753.753 0 0 0 .296.066.713.713 0 0 0 .274-.058c.029-.01.053-.028.08-.042.04-.022.081-.036.117-.064l6.85-5.485a.764.764 0 0 0 .121-1.068z"/></svg><svg width="42" viewBox="-5 -5 42 42" height="42" y="584"><path d="M16 0C7.164 0 0 7.164 0 16c0 8.837 7.164 16 16 16 8.837 0 16-7.163 16-16 0-8.836-7.163-16-16-16zm7.944 12.809c-.251 6.516-3.463 10.832-10.992 10.702h-.486c-.447 0-4.543-.443-5.344-1.823 2.479.19 4.247-.406 5.12-1.136-1.048-.289-2.923-.461-3.251-2.848.384.104.618.221 1.299.113-1.307-.824-2.758-1.519-2.679-3.643.311.317 1.164.518 1.46.457-.768-.233-2.149-3.244-.974-4.781 1.984 1.79 4.075 3.482 7.804 3.643.227-2.214 1.24-3.699 3.168-4.325 1.84-.479 3.255.26 3.901 1.138.737-.224 1.453-.466 2.193-.685-.004.833-.569 1.463-.935 1.709.747.165 1.423-.475 1.423-.475-.184.963-1.094 1.725-1.707 1.954z" fill="#FFF"/></svg><svg width="23" viewBox="-5 -5 23 22" height="22" y="626"><path d="M.032 12h12.937c-.163-2.643-2.074-4.837-4.671-5.543a3.47 3.47 0 0 0 1.687-2.972 3.485 3.485 0 0 0-6.97 0c0 1.264.68 2.361 1.688 2.972C2.106 7.163.194 9.357.032 12z" fill="#272525"/></svg></svg>
